X: 4161
T: COLONEL
%R: reel
B: James Kerr "Merry Melodies" v.4 p.19 #161
Z: 2016 John Chambers <jc:trillian.mit.edu>
M: C|
L: 1/8
K: Amix
|:\
cA A/A/A (fd)ec | dEEF GABd |\
cA A/A/A (fd)ec | defg aAAd :|\
A2(ag) fedc | B2(ba) gfed |
c2(ag) fedc | defg aAAd |\
Aaag fedc | Bbba gfed |\
c/c/c (Ac) dBBc | defg afed |]

%%sep 1 1 500
%%sep 1 1 500

